X:1
T:Suche Gott von ganzem Herzen
T:Friedrich Hegar
T:Friedrich Oser
T:Suche Gott von ganzem Herzen
T:CPDL   —   Creative Commons Attribution Non Commercial 3.0
C:Friedrich Hegar
Z:Friedrich Oser
Z:CPDL   —   Creative Commons Attribution Non Commercial 3.0
%%score [ ( 1 2 ) 3 4 ]
L:1/8
Q:1/4=76
M:4/4
K:F
V:1 treble nm="S\nA"
V:2 treble 
V:3 treble-8 nm="T"
V:4 bass nm="B"
V:1
"^Langsam"!mf! c2 A2 d2 c2 | B2 A2 G2 !fermata!F2 |!<(! A2 =B2 c2 d2!<)! | %3
w: 1.     Su- che Gott von|gan- zem Her- zen;|all- zeit wirst du|
w: 2. Schwer ist's nicht, ver-|traust du kind- lich|oh- ne Mur- ren|
 e2!>(! dc !fermata!c4!>)! |!mf! c2 A2 d2 c2 | B2 A2 G2 !fermata!F2 |!<(! A2 =B2 c2 d2!<)! | %7
w: fin- den * ihn;|hal- te treu- lich|sei- ne Rech- te!|Schau ge- trost auf|
w: ihm auf's * Wort|und be- wahrst du|son- der Wan- ken|dir des Glau- bens|
 e2!>(! dc !fermata!c4!>)! |!f! f2 e2 d2 c2 |!>(! d2 B2 !fermata!A4!>)! |!<(! G2 G2 c2!<)! FG | %11
w: ihn nur * hin,|willst du nim- mer|ir- re geh'n|und vor sei- nem *|
w: Schatz und * Hort!|Kei- ne Weis- heit|in der Welt|auf so fes- ten *|
!>(! A2 GF!>)! !fermata!F4 |] %12
w: Thron be- * steh'n!|
w: Grund dich * stellt!|
V:2
 F2 F2 F2 E2 | G2 F2 FE F2 | F2 F2 E2 A2 | G2 F2 E4 | F2 F2 ^F2 D2 | D2 ^C2 E2 D2 | D2 D2 C2 A2 | %7
 G2 F2 E4 | F2 G2 F2 F2 | F2 E2 F4 | F2 E2 F_E D2 | C2 C2 C4 |] %12
V:3
!mf! A2 c2 BA G2 | c2 c2 B2 !fermata!A2 |!<(! f2 ed c2 c2!<)! | cA!>(! =B2 !fermata!G4!>)! | %4
w: 3.     Su- che Gott * von|gan- zem Her- zen!|Kei- ner * meint's so|treu * und gut|
!mf! A2 c2 A2 A2 | GF E2 A2 !fermata!A2 |!<(! F2 F2 E2 c2!<)! | cA!>(! =B2 !fermata!c4!>)! | %8
w: und kann stä- rken|bis * zum En- de|dir in je- der|Not * den Mut;|
!f! c2 c2 A2 A2 |!>(! BA G2 !fermata!F4!>)! |!<(! d2 c2 c2!<)! F2 |!>(! FA B2!>)! !fermata!A4 |] %12
w: ihm ist al- le|Macht * ver- lieh'n,|kei- nen Hei- land|gibt's * als ihn!|
V:4
!mf! F,2 F,2 B,,2 C,2 | E,2 F,2 C,2 !fermata!F,2 |!<(! F,2 G,2 A,2 F,2!<)! | %3
 G,2!>(! G,,2 !fermata!C,4!>)! |!mf! F,2 _E,2 D,2 ^F,,2 | G,,2 A,,2 ^C,2 !fermata!D,2 | %6
!<(! D,2 ^G,,2 A,,2 ^F,,2!<)! | G,,2!>(! G,2 !fermata!C,4!>)! |!f! A,,2 C,2 D,2 F,2 | %9
!>(! B,,2 C,2 !fermata!D,4!>)! |!<(! =B,,2 _B,,2 A,,2!<)! B,,2 |!>(! C,2 C,2!>)! !fermata!F,,4 |] %12

